X:1
T:24 Arie Antiche
T:Non posso disperar
T: Giovanni Battista Bononcini (1670-1747) misattributed  to S. De Luca (15...-16...) by Alessandro Parisotti (1853-1913)
T:Non posso disperar
T:(24 Arie Antiche) Arietta
T:Low voices
T:Creative Commons copyright waiver (CC0 1.0 Universal)
T:Creative Commons copyright waiver (CC0 1.0 Universal)
T:Creative Commons copyright waiver (CC0 1.0 Universal)
T:Creative Commons copyright waiver (CC0 1.0 Universal)
T:Creative Commons copyright waiver (CC0 1.0 Universal)
T:Creative Commons copyright waiver (CC0 1.0 Universal)
T:Creative Commons copyright waiver (CC0 1.0 Universal)
T:Creative Commons copyright waiver (CC0 1.0 Universal)
T:Creative Commons copyright waiver (CC0 1.0 Universal)
C:Giovanni Battista Bononcini (1670-1747)
Z:Creative Commons copyright waiver (CC0 1.0 Universal)
%%score ( 1 2 ) { ( 3 5 ) | 4 }
L:1/8
Q:1/4=80
M:4/4
K:F
V:1 treble nm="Voice"
V:2 treble 
V:3 treble nm="Piano"
V:5 treble 
V:4 bass 
V:1
"^Andante gracioso" z2 z A B B B B | (AD) z2 z4 | z8 | z8 | z2 z!p! A B B B B | %5
w: Non pos- so di- spe-|rar, _|||non pos- so di- spe-|
 (!>!BA) z A .d .G .G .G | (!>!G2 F2) !>!B _E E E | (!>!_E2 D) .B!>(! .A .G .F .=E!>)! | %8
w: rar, _ sei trop- po, trop- po|ca- ra, trop- po, trop- po|ca- ra, sei trop- po ca- raal|
 !breath!D!p! E !>!F2- F G E3/2 F/ | !breath!F G"^cresc." !>!A2- A =B ^G2 | %10
w: cor; non pos- * so di- spe-|rar, sei trop- * po ca-|
"^cresc." !breath!A!f! =B c2- c[Q:1/4=72]"^rit." !breath!!tenuto!d !tenuto!B3/2[Q:1/4=68] !tenuto!c/ | %11
w: ra, sei trop- * po ca- raal|
 !breath!!tenuto!c!pp! _B[Q:1/4=74]"^a tempo" !>!B2- B (A/G/)[Q:1/4=70] ^F3/2 G/ | %12
w: cor; non pos- * so _ di- spe-|
!f!"^deciso e rall."[Q:1/4=68] !breath!G B !>!c2-[Q:1/4=64] c (B/A/) (G3/2 (F/4G/4)) | %13
w: rar, sei trop- * po * ca- * *|
 F2 z2 z4[Q:1/4=76] | z2 z!p! A B B B (A/G/) |!<(! !>!A4-!<)! A!>(! G F!>)! E | %16
w: ra,|sei trop- po, trop- po *|ca- * ra, ca- raal|
 D2[Q:1/4=78] z2 z4 | z2 z A B B B A/G/ |!<(! A4-[Q:1/4=72] A!<)!"^assai rit." !>!G !>!F{EF} !>!E | %19
w: cor,|Sei trop- po, trop- po *|ca- * ra, ca- raal|
 D2[Q:1/4=76] z2 z4 | z8 |[Q:1/4=72] z8 | z2[Q:1/4=78] z!p!"^dolce e legato assai" C (FE) F G | %23
w: cor.|||Il so- * lo spe-|
 ((AG) A2) z2 z C | (FE) F G (AG) A B | !>!c2 B A G2 C G |[Q:1/4=76] A2 G A B3 c/ B/ | %27
w: ra- * re, il|so- * lo spe- ra- * re, d'a-|ver a~ gio- i- re m'èun|dol- ce lan- gui- re,  m'èun|
 A2 G3/2 F/ !breath!F G _A2- | A2 G2- G _A !>!F2- | FG E3/2 F/ F2 z!p! A | (_cA) c A A _A z =A | %31
w: ca- ro do- lor,  m'èun ca-|* ro, * m'èun  ca-|* * ro do- lor, il|so- * lo spe- ra- re d'a \-|
"^cresc." (=BA) B A A ^G z!mf! .e | =B2!<(! B c (d!<)!^G) A B | %33
w: ver- * a gio- i- re, m'èun|dol- ce lan- gui- * re,  m'èun|
"^cresc." c2 _c3/2 A/!<(! A2!<)! c2 |!f! c2 z e!pp! =B2 B c | %35
w: ca- ro do- lor, ah,|si! m'èun dol- ce lan-|
!<(! (d^G) A =B !>!c2!<)![Q:1/4=72]"^rit."!>(! B A!>)! |!p!"^a piacere" A3[Q:1/4=76] A _B B B B | %37
w: gui- * re,  m'èun ca- ro do-|lor. Non~ pos- so~ di- spe|
 (AD) z2 z4 | z8 | z8 | z2 z!p! A B B B B | (!>!BA) z A .d .G .G .G | (!>!G2 F2) !>!B _E E E | %43
w: rar, _|||non po- so di- spe-|rar, _ sei trop- po, trop- po|ca- ra,~ trop- po,~ trop- po~|
 (!>!_E2 D) .B!>(! .A .G .F .=E!>)! | !breath!D E !>!F2- F G E3/2 F/ | %45
w: ca- ra,~ sei~ trop- po~ ca- raal|cor;~ non~ pos- * so~ di- spe-|
 !breath!F G"^cresc." !>!A2- A =B (^GG) | %46
w: rar,~ sei~ trop- * po~ ca- *|
"^cresc." A!f! =B c2- c[Q:1/4=68]"^rit." !tenuto!d !tenuto!B3/2 !tenuto!c/ | %47
w: ra,~ sei~ trop- * po~ ca- raal|
 !breath!c!pp! B[Q:1/4=76]"^a tempo" !>!B2- B A/G/ ^F>G | %48
w: cor;~ non~ pos- * so~ * di- spe-|
!f!"^deciso e rall."[Q:1/4=76][Q:1/4=76][Q:1/4=70] !breath!G B c2- c (B/A/) (G3/2 (F/4G/4)) | %49
w: rar,~ sei~ trop- * po~ * ca- * *|
 F2[Q:1/4=76] z2 z4 | z2 z!p! A B B B (A/G/) |!<(! !>!A4-!<)! A!>(! G F!>)! E | D2 z2 z4 | %53
w: ra,|sei trop- po, trop- po *|ca- * ra, ca- raal|cor,|
 z2 z A B B B (A/G/) |!<(! A4- A!<)!"^assai rit."[Q:1/4=72] !>!G !>!F{EF} !>!E | %55
w: Sei trop- po, trop- po *|ca- * ra, ca- raal|
 D2[Q:1/4=76] z2 z4 | z8 |[Q:1/4=70] z8[Q:1/4=66] | z8 |] %59
w: cor.~||||
V:2
 x8 | x8 | x8 | x8 | x8 | x8 | x8 | x8 | x8 | x6 ^G G | x8 | x8 | x8 | x8 | x8 | x8 | x8 | x8 | %18
 x8 | x8 | x8 | x8 | x4 F E x2 | x8 | F E F G (AGA) B | x8 | x8 | x8 | x8 | x8 | x8 | x8 | x8 | %33
 x8 | x8 | x8 | x8 | x8 | x8 | x8 | x8 | x8 | x8 | x8 | x8 | x8 | x8 | x8 | x8 | x8 | x8 | x8 | %52
 x8 | x8 | x8 | x8 | x8 | x8 | x8 |] %59
V:3
 z8 | z8 | z2 z A .B.B!>!B(A/G/) |!>(! !>!A(B/A/GF E) !>![DF]2 [^CE]!>)! | [F,A,D]2 z2 z4 | %5
!p! z [CFA] z [CFc] z [DG] z [A,EG] | z [A,DG] z [A,DF] z [B,_EB] z [CEF] | %7
 z ([C_EF][B,DF][B,DB]) .[DA].[B,=EG].[A,DF].[G,A,^CE] | D!p!(E (!>!F2-) FG E2 | %9
 F)G"_cresc." A2- A=B ^G2 |"_cresc." A(=B c2-) cdB>c | c!pp!_B ((!>!B2 B)B/G/ ^F2) | %12
!f! A(B (!>!c2-) cB/A/ G2) | [A,CF]2 z2 z4 | z2 z (A B).B(!>!BA/G/) | %15
 (!>!AB/A/G).F!>(! (E[DG][DF]!>)![^CE]) | [F,A,D]2 z2 z4 | z2 z (A B).B(!>!BA/G/) | %18
 (!>!AB/A/G).F ([A,E]!>![B,DG]!>![B,DF]!>![G,^CE]) | [F,A,D]2!ff! !>![DFd]2 .d.d(!>!dc/B/) | %20
 .[Cc].[Cc](!>![Cc][CA]) [B,B][B,B](!>!BA/G/) | %21
 [A,EA][A,DA](!>![A,^CG][A,DF]) !>![A,E]!>![A,DF]!>![B,DF]!>![G,^CE] | [F,A,D]2 z2 z4 | %23
 z2 z (G AGAB) | !>![Cc]2 !>![Cc]2 !>![Cc]2 !>![Cc]2 | !>![CFc]2 BA G2 z2 | %26
 ([FA]2 [EG][FA]) (.B.B.Bc/B/) | ([CFA]2 !>![B,CEG]2 F).G _A2- | A2 G2- G_A !>!F2- | %29
 FG =E2 [=A,F]2 !>![CFA]2 |!p! (=BABA) (!>!A^G).A.A |"_cresc." (=BABA) (A^G).A.[Ae] | %32
!mf!!<(! [F=B]3 [EAc]!<)!!>(! ([DAd][E^G][EA]!>)![EB]) | %33
"_cresc." ([Ec][DFc] [DE=B]2!<(! .[CEA]2) [DEB]!<)![DE^G] |!f! [CEA]2 z .[EAe]!pp! ([F=B]3 [EAc]) | %35
!<(! ([DAd][E^G][EA][E=B] [Ec][DFc]!<)!!>(! [DE^GB]2)!>)! | [CEA]2 z2 z4 | z8 | %38
 z2 z!<(! A .B.B(!>!BA/G/)!<)! |!>(! (!>!AB/A/G)F E !>![DF]2 [^CE]!>)! | [F,A,D]2 z2 z4 | %41
!p! z [CFA] z [CFc] z [DG] z [A,EG] | z [A,DG] z [A,DF] z [B,_EB] z [CEF] | %43
 z ([C_EF][B,DF][B,DB]) .[DA].[B,=EG].[A,DF].[G,A,^CE] | D(E (!>!F2-) FG E2 | %45
 F)(G"_cresc." !>!A2-) A=B ^G2 |"_cresc." A(=B c2-) cdB>c | c!pp!_B ((!>!B2 B)B/G/ ^F2) | %48
!f! GB (!>!c2- cB/A/ G2) | [A,CF]2 z2 z4 | z2 z (A B).B(!>!BA/G/) | %51
!<(! (!>!AB/A/G)!<)!.F!>(! (E[DG][DF]!>)![^CE]) | [F,A,D]2 z2 z4 | z2 z A .B.B(!>!BA/G/) | %54
 (!>!AB/A/G).F (E!>![DG]!>![DF]!>![^CE]) | [F,A,D]2!ff! !>![DFd]2 .d.d(!>!dc/B/) | %56
 .[Cc].[Cc](!>![Cc][CA]) [B,B][B,B](!>!BA/G/) | %57
 [A,EA][A,DA](!>![A,^CG][A,DF])!f! !>![A,E]!>![A,DF]!>![B,DF]!>![G,^CE] | [F,A,D]2 z2 z4 |] %59
V:4
 z8 | z2 z!p! (A, B,).B,!>!B,(A,/G,/) |!<(! .A,.A,.A,(D, G,).G,!>!G,(F,/!<)!E,/) | %3
 (F,G,/F,/E,)D, (!>!^C,D,)!>!G,,!>!A,, | D,,2 z2 z4 | (F,2!<(! A,,2 =B,,2!<)! ^C,2 | %6
 D,2)!<(! (F,,2 G,,2!<)! A,,2) | (!>!B,,3 G,, F,,G,,A,,A,,, | D,,2) z (A,, B,,G,,C,C,, | %9
 F,,2) z C, D,_C,E,E,, | A,,2 z"^rit." (E, F,D,G,G,, | C,) z"^a tempo" (^C,2 D,2 D,,2 | %12
"^deciso e rall." G,,2) !>!A,,2 !>!B,,2 (C,C,,) | F,,2 z!p!!p! ((A, B,)).B,((!>!B,A,/G,/)) | %14
 .A,.A,(!>!A,D,) .G,.G,((!>!G,F,/E,/)) |!<(! (!>!F,G,/F,/E,)!<)!.D, (!>!^C,D,).G,,.A,, | %16
 D,2 z!p! (A, B,).B, (!>!B,A,/G,/) | .A,.A,(!>!A,D,) .G,.G, (!>!G,F,/E,/) | %18
 (!>!F,G,/F,/E,).D,"^assai rit." (!>!^C,D,)!>!G,,!>!A,, | %19
 D,,2 z"^e deciso" [A,,A,] .[B,,B,].[B,,B,](!>![B,,B,][A,,A,]/[G,,G,]/) | %20
 .[A,,A,].[A,,A,](!>![A,,A,][D,,D,]) .[G,,G,].[G,,G,](!>![G,,G,][F,,F,]/[E,,E,]/) | %21
 ([F,,F,][G,,G,]/[F,,F,]/)!ff!.[E,,E,].[D,,D,] !>![^C,,^C,]!>![D,,D,]!>![G,,,G,,]!>![A,,,A,,] | %22
 [D,,,D,,]2 z2 z2 z!p! =C,, | (F,,E,,!p!"^legatissimo"F,,)(C, F,E,F,G, | A,G,A,)(C, F,E,F,F,,) | %25
 (A,,2!>(! B,,2!>)! C,2) z2 | C,4 (D,E,D,B,,) | (C,B,,C,C,, F,,) z z .C, | %28
 (_D,B,,_E,_E,, _A,,2) z .A,, | (B,,G,,C,C,, F,,2) z .F, | (D,E,F,D, E,2) z .C, | %31
 (D,E,F,D, E,2) z .C, | (D,C,D,E, F,)(E,/D,/C,^G,, | A,,)(D,E,E,, A,,)(A,^G,E,) | %34
 (A,,=B,,C,A,,) (D,C,D,E,) | (F,E,/D,/C,^G,,) A,,D,,"^rit"E,,E,,, | [A,,,A,,]2 z2 z4 | %37
 z2 z!p! (A, _B,).B,(!>!B,A,/G,/) | .A,.A,.A,(D, G,).G,!>!G,(F,/E,/) | %39
 (F,G,/F,/E,)D, (!>!^C,D,)!>!G,,!>!A,, | D,,2 z2 z4 | (F,2!<(! A,,2 =B,,2!<)! ^C,2 | %42
 D,2)!<(! (F,,2 G,,2!<)! A,,2) | (!>!B,,3 G,, F,,G,,A,,A,,, | D,,2) z (A,, B,,G,,C,C,, | %45
 F,,2) z (C, D,_C,E,E,, | A,,2) z"^rit." (E, F,D,G,G,, | C,) z"^a tempo" (^C,2 D,2 D,,2 | %48
"^deciso e rall." G,,2) !>!A,,2 !>!B,,2 (C,C,,) | F,,2 z!p! (A, B,).B,(!>!B,A,/G,/) | %50
 .A,.A,(!>!A,D,) .G,.G,(!>!G,F,/E,/) | (!>!F,G,/F,/E,).D, (!>!^C,D,).G,,.A,, | %52
 D,2 z!p! (A, B,).B,(!>!B,A,/G,/) | .A,.A,(!>!A,D,) .G,.G,(!>!G,F,/E,/) | %54
 !>!F,(G,/F,/E,)D, (!>!^C,!>!D,)!>!G,,!>!A,, | %55
 D,,2 z"^e deciso" [A,,A,] .[B,,B,].[B,,B,]((!>![B,,B,][A,,A,]/[G,,G,]/)) | %56
 .[A,,A,].[A,,A,](!>![A,,A,][D,,D,]) .[G,,G,].[G,,G,](!>![G,,G,][F,,F,]/[E,,E,]/) | %57
"^assai rall. e" (!>![F,,F,][G,,G,]/[F,,F,]/[E,,E,]).[D,,D,] !>![^C,,^C,]!>![D,,D,]!>![G,,,G,,]!>![A,,,A,,] | %58
 [D,,,D,,]2 z2 z4 |] %59
V:5
 x8 | x8 | z4 D D2 (D | D)D^CD A,A,B,G, | x8 | x8 | x8 | x8 | [F,A,] z z (=C DB,CB, | %9
 [A,C]) z z (E FDED | [CE]) z z (=G AFGF | [EG]) z z [EG] [DF]2 z [CD] | %12
 [B,D] z z [CF] [DF]2 [CF][B,CE] | x8 | x4 D D2 D- | DD^CD A,B,B,G, | x8 | x4 D .D2 D | DD^CD x4 | %19
 x4 [DG][DG][DG][DG] | (GF/E/)FF (FE/D/)[B,E][B,E] | x8 | x8 | x8 | x8 | x2 [DF]2 E2 x2 | %26
 C4 [B,F][B,G][B,F][DG] | z4 [A,C] z z (_E | F_DB,D C) z z C | _DB,G,B, x4 | %30
 ([DF]4 [=B,E]2) .[CE].[A,E] | ([DF]4 [=B,E]2) .[CE].E | x8 | x8 | x8 | x8 | x8 | x8 | z4 D D2 (D | %39
 D)D^CD A,A,B,G, | x8 | x8 | x8 | x8 | [F,A,] z z!p! =C DB,CB, | [A,C] z z (E FDED | %46
 [CE]) z z (=G AFGF | [EG]) z z [EG] [DF]2 z [CD] | [B,D] z z [CF] [DF]2 [CF][B,CE] | x8 | %50
 x4 D D2 D- | DD^CD A,B,B,G, | x8 | x4 D D2 D- | DD^CD A,B,B,G, | x4 [DG][DG][DG].[DG] | %56
 (GF/E/)FF (FE/D/)[B,E][B,E] | x8 | x8 |] %59

